hw8Responsive/images/logos/contentlogo/bluebox/baseline-people-24px.svg

<svg width="40" height="40" viewBox="0 0 40 40" fill="none" xmlns="http://www.w3.org/2000/svg">
<path d="M26.667 18.3333C29.4337 18.3333 31.6503 16.0999 31.6503 13.3333C31.6503 10.5666 29.4337 8.33325 26.667 8.33325C23.9003 8.33325 21.667 10.5666 21.667 13.3333C21.667 16.0999 23.9003 18.3333 26.667 18.3333ZM13.3337 18.3333C16.1003 18.3333 18.317 16.0999 18.317 13.3333C18.317 10.5666 16.1003 8.33325 13.3337 8.33325C10.567 8.33325 8.33366 10.5666 8.33366 13.3333C8.33366 16.0999 10.567 18.3333 13.3337 18.3333ZM13.3337 21.6666C9.45033 21.6666 1.66699 23.6166 1.66699 27.4999V31.6666H25.0003V27.4999C25.0003 23.6166 17.217 21.6666 13.3337 21.6666ZM26.667 21.6666C26.1837 21.6666 25.6337 21.6999 25.0503 21.7499C26.9837 23.1499 28.3337 25.0333 28.3337 27.4999V31.6666H38.3337V27.4999C38.3337 23.6166 30.5503 21.6666 26.667 21.6666Z" fill="white"/>
</svg>

<svg width="40" height="40" fill="none" xmlns="http://www.w3.org/2000/svg"><path d="M26.667 18.333a4.98 4.98 0 004.983-5c0-2.766-2.216-5-4.983-5-2.767 0-5 2.234-5 5 0 2.767 2.233 5 5 5zm-13.333 0a4.98 4.98 0 004.983-5c0-2.766-2.217-5-4.983-5-2.767 0-5 2.234-5 5 0 2.767 2.233 5 5 5zm0 3.334c-3.884 0-11.667 1.95-11.667 5.833v4.167H25V27.5c0-3.883-7.783-5.833-11.666-5.833zm13.333 0c-.483 0-1.033.033-1.617.083 1.934 1.4 3.284 3.283 3.284 5.75v4.167h10V27.5c0-3.883-7.784-5.833-11.667-5.833z" fill="#fff"/></svg>
